packages/foundations/assets/icons/functional/images/business & payment/shopping_bag_12.svg

<svg width="12" height="12" viewBox="0 0 12 12" fill="none" xmlns="http://www.w3.org/2000/svg">
<g clip-path="url(#clip0_231_130)">
<path fill-rule="evenodd" clip-rule="evenodd" d="M5.99947 1.20001C7.34947 1.20001 8.38146 2.17501 8.39947 3.60001H9.24447C9.56247 3.60001 9.82447 3.84401 9.84447 4.16201L10.2005 10.162C10.2038 10.2435 10.1909 10.3249 10.1624 10.4013C10.1339 10.4777 10.0904 10.5477 10.0345 10.6071C9.97865 10.6665 9.91148 10.7142 9.83694 10.7473C9.76241 10.7804 9.68201 10.7984 9.60047 10.8H2.39947C2.31792 10.7984 2.23752 10.7804 2.16299 10.7473C2.08845 10.7142 2.02128 10.6665 1.9654 10.6071C1.90952 10.5477 1.86606 10.4777 1.83757 10.4013C1.80908 10.3249 1.79612 10.2435 1.79947 10.162L2.15547 4.16201C2.16443 4.0093 2.23167 3.86586 2.34332 3.76128C2.45497 3.65671 2.6025 3.59898 2.75547 3.60001H3.59947C3.59947 2.17501 4.64947 1.20001 5.99947 1.20001ZM8.68147 4.80001H3.31947L3.03747 9.60001H8.96247L8.68147 4.80001ZM6.00047 2.40001C5.11947 2.40001 4.80047 3.00001 4.80047 3.60001H7.20047C7.20047 3.00001 6.90047 2.40001 6.00047 2.40001ZM6.59947 6.00001V6.60001C6.59947 6.93801 6.33647 7.20001 5.99947 7.20001C5.92037 7.20109 5.84187 7.1863 5.76859 7.15653C5.69531 7.12676 5.62873 7.08261 5.5728 7.02667C5.51687 6.97074 5.47272 6.90417 5.44295 6.83089C5.41317 6.75761 5.39839 6.6791 5.39947 6.60001V6.00001H4.19947V6.60001C4.19947 7.50001 4.79947 8.40001 5.99947 8.40001C7.19947 8.40001 7.79947 7.50001 7.79947 6.60001V6.00001H6.59947Z" fill="#1A1C1F"/>
</g>
<defs>
<clipPath id="clip0_231_130">
<rect width="12" height="12" fill="white"/>
</clipPath>
</defs>
</svg>

<svg xmlns="http://www.w3.org/2000/svg" width="12" height="12" fill="none"><g clip-path="url(#a)"><path fill="#1A1C1F" fill-rule="evenodd" d="M6 1.2c1.35 0 2.381.975 2.4 2.4h.844c.318 0 .58.244.6.562l.357 6a.614.614 0 0 1-.6.638H2.398a.61.61 0 0 1-.6-.638l.356-6a.597.597 0 0 1 .6-.562H3.6c0-1.425 1.05-2.4 2.4-2.4M8.68 4.8H3.32l-.282 4.8h5.925zm-2.68-2.4c-.882 0-1.2.6-1.2 1.2h2.4c0-.6-.3-1.2-1.2-1.2M6.598 6v.6c0 .338-.263.6-.6.6a.59.59 0 0 1-.6-.6V6H4.2v.6c0 .9.6 1.8 1.8 1.8s1.8-.9 1.8-1.8V6z" clip-rule="evenodd"/></g><defs><clipPath id="a"><path fill="#fff" d="M0 0h12v12H0z"/></clipPath></defs></svg>
